X: 5
T: Sally Gardens
R: reel
N: "Sally" is Salix, the Latin name for the willow genus.
Z: 2012 John Chambers <jc:trillian.mit.edu>
B: "100 Essential Irish Session Tunes" 1995 Dave Mallinson, ed.
M: 4/4
L: 1/8
K: G
DE |:\
"G"G2DG B2GB | "G"dBeB dBAB \
|1 "Bm"d2Bd "Em"egdB | "Am"AcBA "D"GEDE \
:|2 "Bm"d2Bd "Em"egdB | "D7"AcBA "G"G2 |]
Bc |:\
"G"dggf g2de | "G"g2bg ageg \
|1 "A7"eaag a2eg | "D"a2bg ageg \
:|2 "Bm"d2Bd "Em"egdB | "D7"AcBA "G"G2 |]
